Catalina-light/actions/16/path-effect-parameter-next.svg

<svg xmlns="http://www.w3.org/2000/svg" width="16" height="16" viewBox="0 0 16 16">
 <defs>
  <style id="current-color-scheme" type="text/css">
   .ColorScheme-Text { color:#5c616c; } .ColorScheme-Highlight { color:#5294e2; }
  </style>
 </defs>
 <path style="fill:currentColor" class="ColorScheme-Text" d="M 14.5 1 A 1.5 1.5 0 0 0 13.060547 2.0839844 C 7.7294469 3.1856844 3.0174063 6.7422063 2.0664062 13.066406 A 1.5 1.5 0 0 0 1 14.5 A 1.5 1.5 0 0 0 2.5 16 A 1.5 1.5 0 0 0 4 14.5 A 1.5 1.5 0 0 0 3.0703125 13.113281 C 3.9802125 7.3246813 8.1831 4.15235 13.125 3.09375 A 1.5 1.5 0 0 0 14.5 4 A 1.5 1.5 0 0 0 16 2.5 A 1.5 1.5 0 0 0 14.5 1 z M 9 7 L 9 11.5 L 9 16 L 12.5 13.75 L 15 12.142578 L 15 16 L 16 16 L 16 11.5 L 16 7 L 15 7 L 15 10.857422 L 12.5 9.25 L 9 7 z"/>
</svg>

<svg width="16" height="16" viewBox="0 0 16 16" xmlns="http://www.w3.org/2000/svg">
<defs>
<style id="current-color-scheme" type="text/css">.ColorScheme-Text { color:#5c616c; } .ColorScheme-Highlight { color:#5294e2; }</style>
</defs>
<path class="ColorScheme-Text" d="m14.5 1a1.5 1.5 0 0 0-1.4395 1.084c-5.3311 1.1017-10.043 4.6582-10.994 10.982a1.5 1.5 0 0 0-1.0664 1.4336 1.5 1.5 0 0 0 1.5 1.5 1.5 1.5 0 0 0 1.5-1.5 1.5 1.5 0 0 0-0.92969-1.3867c0.9099-5.7886 5.1128-8.9609 10.055-10.02a1.5 1.5 0 0 0 1.375 0.90625 1.5 1.5 0 0 0 1.5-1.5 1.5 1.5 0 0 0-1.5-1.5zm-5.5 6v9l3.5-2.25 2.5-1.6074v3.8574h1v-9h-1v3.8574l-2.5-1.6074-3.5-2.25z" fill="currentColor"/>
</svg>
